default/Learn.svg

<svg width="24" height="24" viewBox="0 0 24 24" fill="none" xmlns="http://www.w3.org/2000/svg">
<path d="M17.25 16.4363L12 19.3895L6.75 16.4363V13.3163L5.25 12.4829V17.3136L12 21.1104L18.75 17.3136V12.4829L17.25 13.3163V16.4363V16.4363Z" />
<path d="M12 2.15515L1.5 7.59959V8.89962L12 14.7328L21 9.73296V13.875H22.5V7.59959L12 2.15515ZM19.5 8.85035L18 9.68365L12 13.0172L6 9.68365L4.5 8.85035L3.46036 8.27276L12 3.84481L20.5396 8.27276L19.5 8.85035Z" />
</svg>

<svg style="fill: currentColor;" width="24" height="24" fill="none" xmlns="http://www.w3.org/2000/svg">
<path d="M17.25 16.436 12 19.39l-5.25-2.954v-3.12l-1.5-.833v4.83L12 21.11l6.75-3.796v-4.831l-1.5.833v3.12z"/>
<path d="M12 2.155 1.5 7.6v1.3L12 14.733l9-5v4.142h1.5V7.6L12 2.155zm7.5 6.695-1.5.834-6 3.333-6-3.333-1.5-.834-1.04-.577L12 3.845l8.54 4.428-1.04.577z"/>
</svg>
